src/icons/remove-comment.svg

<?xml version="1.0" encoding="UTF-8"?>
<svg xmlns="http://www.w3.org/2000/svg" xmlns:xlink="http://www.w3.org/1999/xlink" width="32" height="32" viewBox="0 0 32 32" version="1.1">
<g id="surface1">
<path style=" stroke:none;fill-rule:nonzero;fill:rgb(0%,0%,0%);fill-opacity:1;" d="M 16 2.558594 C 7.890625 2.558594 1.28125 8.242188 1.28125 15.359375 C 1.28125 19.484375 3.539062 23.078125 7.015625 25.425781 C 7.011719 25.566406 7.019531 25.789062 6.839844 26.460938 C 6.613281 27.292969 6.160156 28.460938 5.238281 29.78125 L 4.585938 30.71875 L 5.730469 30.71875 C 9.691406 30.71875 11.984375 28.136719 12.335938 27.722656 C 13.515625 28 14.730469 28.148438 16 28.148438 C 17.234375 28.148438 18.433594 28.011719 19.582031 27.761719 C 20.472656 30.226562 22.832031 32 25.601562 32 C 29.128906 32 32 29.128906 32 25.601562 C 32 23.527344 31.003906 21.6875 29.46875 20.515625 C 30.269531 18.941406 30.71875 17.199219 30.71875 15.359375 C 30.71875 8.242188 24.109375 2.558594 16 2.558594 Z M 25.585938 20.558594 C 26.171875 20.554688 26.742188 20.632812 27.261719 20.761719 C 27.265625 20.761719 27.269531 20.761719 27.273438 20.761719 C 29.28125 21.453125 30.71875 23.351562 30.71875 25.601562 C 30.71875 28.433594 28.433594 30.71875 25.601562 30.71875 C 22.765625 30.71875 20.480469 28.433594 20.480469 25.601562 C 20.480469 23.800781 21.402344 22.226562 22.800781 21.3125 C 23.683594 20.78125 24.652344 20.5625 25.585938 20.558594 Z M 23.351562 22.710938 C 23.09375 22.714844 22.859375 22.871094 22.761719 23.113281 C 22.664062 23.355469 22.71875 23.628906 22.90625 23.8125 L 24.695312 25.601562 L 22.90625 27.386719 C 22.738281 27.546875 22.671875 27.789062 22.734375 28.011719 C 22.789062 28.234375 22.964844 28.410156 23.191406 28.46875 C 23.414062 28.527344 23.652344 28.460938 23.8125 28.292969 L 25.601562 26.503906 L 27.386719 28.292969 C 27.546875 28.460938 27.789062 28.527344 28.011719 28.46875 C 28.234375 28.410156 28.410156 28.234375 28.46875 28.011719 C 28.527344 27.789062 28.460938 27.546875 28.292969 27.386719 L 26.503906 25.601562 L 28.292969 23.8125 C 28.484375 23.628906 28.539062 23.347656 28.433594 23.105469 C 28.332031 22.859375 28.09375 22.703125 27.828125 22.710938 C 27.660156 22.71875 27.503906 22.789062 27.386719 22.90625 L 25.601562 24.695312 L 23.8125 22.90625 C 23.691406 22.78125 23.527344 22.714844 23.351562 22.710938 Z M 23.351562 22.710938 "/>
</g>
</svg>

<svg role="img" viewBox="0 0 32 32" xmlns="http://www.w3.org/2000/svg"><path d="M16 2.559c-8.11 0-14.719 5.683-14.719 12.8 0 4.125 2.258 7.72 5.735 10.067-.004.14.004.363-.176 1.035-.227.832-.68 2-1.602 3.32l-.652.938H5.73c3.961 0 6.254-2.582 6.606-2.996 1.18.277 2.394.425 3.664.425a16.83 16.83 0 0 0 3.582-.386c.89 2.465 3.25 4.238 6.02 4.238A6.407 6.407 0 0 0 32 25.602a6.388 6.388 0 0 0-2.531-5.086c.8-1.575 1.25-3.317 1.25-5.157 0-7.117-6.61-12.8-14.719-12.8m9.586 18a6.815 6.815 0 0 1 1.676.203h.011a5.108 5.108 0 0 1 3.446 4.84 5.11 5.11 0 0 1-5.117 5.117 5.11 5.11 0 0 1-5.122-5.117 5.11 5.11 0 0 1 2.32-4.29 5.416 5.416 0 0 1 2.786-.753m-2.234 2.152a.646.646 0 0 0-.59.402.638.638 0 0 0 .144.7l1.79 1.789-1.79 1.785a.631.631 0 0 0-.172.625.63.63 0 0 0 .457.457.635.635 0 0 0 .622-.176l1.789-1.79 1.785 1.79a.642.642 0 1 0 .906-.906l-1.79-1.785 1.79-1.79a.63.63 0 0 0 .14-.707.633.633 0 0 0-1.046-.199l-1.785 1.79-1.79-1.79a.654.654 0 0 0-.46-.195m0 0" style="stroke:none;fill-rule:nonzero;fill:rgb(0%,0%,0%);fill-opacity:1"/></svg>
